X: 3
T: Inventio 3
C: Johann Sebastian Bach
%%abc-version 2.0
%%abcx-abcm2ps-target-version 5.9.1 (29 Sep 2008)
%%abc-creator hum2abc beta
%%abcx-conversion-date 2021/01/28 10:10:55
%%abc-copyright Copyright 1994, David Huron
%%abc-edited-by David Huron
%%abcx-initial-encoding-date 1986 November
%%gracespace 0 6 6
%%humdrum-veritas 1056077760
%%humdrum-veritas-data 2267198455
%%linebreak <none>
%%barnumbers 0
L: 1/16
M: 3/8
N: Derived from inven03.krn
Q: 1/8=144
%%staves {1 2}
V: 1 clef=treble
V: 2 clef=bass
K: D
[V:1] D E [I:setbarnb 1]| 
[V:2] z2 | 
[V:1] FEGFED | 
[V:2] z6 | 
[V:1] AGFEFD | 
[V:2] z2 z2 D, E, | 
[V:1] A2B2~cd | 
[V:2] F,E,G,F,E,D, | 
[V:1] !mordent!c2BAcd | 
[V:2] A,G,F,E,F,D, | 
[V:1] .ecfdcB | 
[V:2] A,2A,,2A,2 | 
[V:1] ecdBA^G | 
[V:2] A,2A,,2A,2 | 
[V:1] ecfdcB | 
[V:2] A,2A,,2A,2 | 
[V:1] ecdBA^G | 
[V:2] A,2A,,2A,2 | 
[V:1] cBdcBA | 
[V:2] A,2B,2C2 | 
[V:1] f2^G2A2- | 
[V:2] DCEDCB, | 
[V:1] !turn!AB2<B2A | 
[V:2] CDE2E,2 | 
[V:1] A4z2 | 
[V:2] A,E,F,^G,A,B, | 
[V:1] z2 e2 a2- | 
[V:2] CB,DCB,A, | 
[V:1] aBc^def | 
[V:2] E2E,2 z2 | 
[V:1] gfagfe | 
[V:2] z2 B,2E2- | 
[V:1] b2B2 z2 | 
[V:2] EF,^G,^A,B,C | 
[V:1] z2 F2B2- | 
[V:2] DCEDCB, | 
[V:1] B^ABcde | 
[V:2] F2F,2E2 | 
[V:1] fegfed | 
[V:2] D2B^AB2 | 
[V:1] edfedc | 
[V:2] C2^A^GA2 | 
[V:1] dcedcB | 
[V:2] B=A=GFED | 
[V:1] c2~^A2B2- | 
[V:2] EDFEDC | 
[V:1] B c2< !mordent!c2 B- | 
[V:2] DEF2F,2 | 
[V:1] BF^G^ABc | 
[V:2] B,2F,2D,2 | 
[V:1] dcedcB | 
[V:2] B,,4z2 | 
[V:1] g6- | 
[V:2] z B,,C,^D,E,F, | 
[V:1] g6- | 
[V:2] G,F,A,G,F,E, | 
[V:1] gEF^GAB | 
[V:2] A,6- | 
[V:1] cBdcBA | 
[V:2] A,6- | 
[V:1] f6- | 
[V:2] A,A,,B,,C,D,E, | 
[V:1] f6- | 
[V:2] F,E,G,F,E,D, | 
[V:1] fBedcB | 
[V:2] ^G,2>E,2F,G, | 
[V:1] cBdcBA | 
[V:2] A,^G,F,E,D,F, | 
[V:1] !mordent!^G2E2AB | 
[V:2] E,D,C,B,,C,A,, | 
[V:1] cBdcBA | 
[V:2] A,2F,2C,2 | 
[V:1] f2>^G2AG | 
[V:2] D,C,E,D,C,B,, | 
[V:1] Ad2<B2A | 
[V:2] C,D,E,2E,,2 | 
[V:1] A2>c2de | 
[V:2] A,,C,D,E,F,G, | 
[V:1] F2G2!turn!A2 | 
[V:2] A,G,B,A,G,F, | 
[V:1] B2!turn!c2d2- | 
[V:2] G,F,A,G,F,E, | 
[V:1] dcedcd | 
[V:2] F,E,G,F,E,D, | 
[V:1] edcBAG | 
[V:2] A,2A,,2 z2 | 
[V:1] FEGFED | 
[V:2] z6 | 
[V:1] AGFEFD | 
[V:2] z2 z2 D, E, | 
[V:1] A2B2~cd | 
[V:2] F,E,G,F,E,D, | 
[V:1] c2A2d2 | 
[V:2] A,G,F,E,F,D, | 
[V:1] d2D2d2 | 
[V:2] A,F,B,G,F,E, | 
[V:1] d2D2d2 | 
[V:2] A,F,G,E,D,C, | 
[V:1] d2D2d2 | 
[V:2] A,F,B,G,F,E, | 
[V:1] d2D2de | 
[V:2] A,F,G,E,D,C, | 
[V:1] .fegfed | 
[V:2] D,2E,2F,2 | 
[V:1] b2c2d2- | 
[V:2] G,F,A,G,F,E, | 
[V:1] !turn!de2<e2d | 
[V:2] F,G,A,2A,,2 | 
[V:1] d2D2G2- | 
[V:2] B,,A,,=C,B,,A,,G,, | 
[V:1] GA,B,CDE | 
[V:2] D,6- | 
[V:1] FEGFED | 
[V:2] D,C,B,,A,,G,,F,, | 
[V:1] B2>C2DC | 
[V:2] G,,F,,A,,G,,F,,E,, | 
[V:1] DG2<E2D | 
[V:2] F,,G,,A,,4 | 
[V:1] !fermata!D4 |]  
[V:2] !fermata!D,,4 |]  


